Numix-GalliumOS/32/actions/stock_mail-unread-multiple.svg

<?xml version="1.0" encoding="UTF-8" standalone="no"?>
<svg
   xmlns:dc="http://purl.org/dc/elements/1.1/"
   xmlns:cc="http://creativecommons.org/ns#"
   xmlns:rdf="http://www.w3.org/1999/02/22-rdf-syntax-ns#"
   xmlns:svg="http://www.w3.org/2000/svg"
   xmlns="http://www.w3.org/2000/svg"
   xmlns:sodipodi="http://sodipodi.sourceforge.net/DTD/sodipodi-0.dtd"
   xmlns:inkscape="http://www.inkscape.org/namespaces/inkscape"
   width="32"
   height="32"
   viewBox="0 0 32 32"
   id="svg2"
   version="1.1"
   inkscape:version="0.91 r"
   sodipodi:docname="stock_mail-unread-multiple.svg">
  <metadata
     id="metadata18">
    <rdf:RDF>
      <cc:Work
         rdf:about="">
        <dc:format>image/svg+xml</dc:format>
        <dc:type
           rdf:resource="http://purl.org/dc/dcmitype/StillImage" />
        <dc:title />
      </cc:Work>
    </rdf:RDF>
  </metadata>
  <defs
     id="defs16" />
  <sodipodi:namedview
     pagecolor="#ffffff"
     bordercolor="#666666"
     borderopacity="1"
     objecttolerance="10"
     gridtolerance="10"
     guidetolerance="10"
     inkscape:pageopacity="0"
     inkscape:pageshadow="2"
     inkscape:window-width="1920"
     inkscape:window-height="1056"
     id="namedview14"
     showgrid="false"
     inkscape:zoom="7.375"
     inkscape:cx="16"
     inkscape:cy="16"
     inkscape:window-x="0"
     inkscape:window-y="24"
     inkscape:window-maximized="1"
     inkscape:current-layer="svg2" />
  <path
     style="fill:#268bd2"
     d="M 1.5000001,0 C 0,0 0,0 0,1.500001 L 0,16.499999 C 0,18 0,18 1.5000001,18 L 22.5,18 c 1.500001,0 1.500001,0 1.500001,-1.500001 0,-4.828124 0,-12.210936 0,-14.999998 C 24.000001,0 24.000001,0 22.5,0 Z"
     id="path4-4"
     inkscape:connector-curvature="0" />
  <g
     style="fill-opacity:0.10199998"
     id="g6-9"
     transform="matrix(0.74999999,0,0,0.74999999,0,-6.0000001)">
    <path
       style="fill:#ffffff"
       d="M 0.875,8.015625 C 0.03125,8.109375 0,8.511719 0,10.011719 L 16,20 32,10.011719 C 32,8.015625 32,8.015625 30,8.015625 l -28,0 c -0.5,0 -0.84375,-0.03125 -1.125,0 z"
       id="path8-6"
       inkscape:connector-curvature="0" />
    <path
       style="fill:#000000"
       d="M 32,10 16,20 32,30 Z"
       id="path10-9"
       inkscape:connector-curvature="0" />
  </g>
  <path
     style="fill:#268bd2"
     d="M 9.4999991,14 C 7.999999,14 7.999999,14 7.999999,15.500001 l 0,14.999998 C 7.999999,32 7.999999,32 9.4999991,32 L 30.499999,32 C 32,32 32,32 32,30.499999 32,25.671875 32,18.289063 32,15.500001 32,14 32,14 30.499999,14 Z"
     id="path4"
     inkscape:connector-curvature="0" />
  <g
     style="fill-opacity:0.10199998"
     id="g6"
     transform="matrix(0.74999999,0,0,0.74999999,7.999999,7.9999999)">
    <path
       style="fill:#ffffff"
       d="M 0.875,8.015625 C 0.03125,8.109375 0,8.511719 0,10.011719 L 16,20 32,10.011719 C 32,8.015625 32,8.015625 30,8.015625 l -28,0 c -0.5,0 -0.84375,-0.03125 -1.125,0 z"
       id="path8"
       inkscape:connector-curvature="0" />
    <path
       style="fill:#000000"
       d="M 32,10 16,20 32,30 Z"
       id="path10"
       inkscape:connector-curvature="0" />
  </g>
  <path
     style="fill:#cb4b16;fill-rule:evenodd;fill-opacity:1"
     d="M 28.453125 9.039062 C 29.949219 15.5 29.542969 14.699219 23.980469 11.972656 C 18.136719 14.941406 18.339844 15.191406 19.542969 8.976562 C 14.289062 4.601562 14.890625 4.996094 21.273438 4.191406 C 24.148438 -1.605469 23.90625 -1.195312 26.78125 4.226562 C 33.515625 4.976562 33.355469 4.71875 28.453125 9.039062 Z "
     id="path12" />
</svg>

<svg xmlns="http://www.w3.org/2000/svg" viewBox="0 0 32 32">
 <path d="m 1.5 0 c -1.5 0 -1.5 0 -1.5 1.5 l 0 15 c 0 1.5 0 1.5 1.5 1.5 l 21 0 c 1.5 0 1.5 0 1.5 -1.5 0 -4.828 0 -12.211 0 -15 c 0 -1.5 0 -1.5 -1.5 -1.5" style="fill:#268bd2"/>
 <g transform="matrix(0.74999999,0,0,0.74999999,0,-6.0000001)" style="fill-opacity:0.102">
  <path d="m 0.875 8.02 c -0.844 0.094 -0.875 0.496 -0.875 1.996 l 16 9.988 16 -9.988 c 0 -1.996 0 -1.996 -2 -1.996 l -28 0 c -0.5 0 -0.844 -0.031 -1.125 0 z" style="fill:#fff"/>
  <path d="m 32 10 -16 10 16 10" style="fill:#000"/>
 </g>
 <path d="m 9.5 14 c -1.5 0 -1.5 0 -1.5 1.5 l 0 15 c 0 1.5 0 1.5 1.5 1.5 l 21 0 c 1.5 0 1.5 0 1.5 -1.5 0 -4.828 0 -12.211 0 -15 0 -1.5 0 -1.5 -1.5 -1.5" style="fill:#268bd2"/>
 <g transform="matrix(0.74999999,0,0,0.74999999,7.999999,7.9999999)" style="fill-opacity:0.102">
  <path d="m 0.875 8.02 c -0.844 0.094 -0.875 0.496 -0.875 1.996 l 16 9.988 16 -9.988 c 0 -1.996 0 -1.996 -2 -1.996 l -28 0 c -0.5 0 -0.844 -0.031 -1.125 0 z" style="fill:#fff"/>
  <path d="m 32 10 -16 10 16 10" style="fill:#000"/>
 </g>
 <path d="m 28.453 9.04 c 1.496 6.461 1.09 5.66 -4.473 2.934 c -5.844 2.969 -5.641 3.219 -4.438 -2.996 c -5.254 -4.375 -4.652 -3.98 1.73 -4.785 c 2.875 -5.797 2.633 -5.387 5.508 0.035 c 6.734 0.75 6.574 0.492 1.672 4.812 Z" style="fill:#cb4b16;fill-opacity:1;fill-rule:evenodd"/>
</svg>
